X:1
T:To God Be the Glory
T:Text: Fanny J. Crosby, 1875, alt. Tune: William H. Doane, 1875
T:11 11 11 11 with refrain TO GOD BE THE GLORY www.hymnary.org/text/to_god_be_the_glory_great_things_he_hath
T:To God Be the Glory
T:This hymn is in the public domain. You may freely use this score for personal and congregational worship. If you reproduce the score, please credit Hymnary.org as the source. 
T:This hymn is in the public domain. You may freely use this score for personal and congregational worship. If you reproduce the score, please credit Hymnary.org as the source. 
T:This hymn is in the public domain. You may freely use this score for personal and congregational worship. If you reproduce the score, please credit Hymnary.org as the source. 
Z:This hymn is in the public domain. You may freely use this score for personal and congregational worship. If you reproduce the score, please credit Hymnary.org as the source.
%%score ( 1 2 ) ( 3 4 )
L:1/8
M:3/4
K:G
V:1 treble nm="SOPRANO ALTO" snm="S. A."
V:2 treble 
V:3 bass nm="TENOR BASS" snm="T. B."
V:4 bass 
V:1
"^1""^2""^3" D2 |"^G" D4"^D7" EF | G2 D2 G2 |"^D" A2 D2 A2 |"^G" B4 B2 |"^C" c2 E2 c2 | %6
w: To|God be the|glo- ry, great|things he has|done; so|loved he the|
w: O|per- fect re-|demp- tion, the|pur- chase of|blood, to|ev- ery be-|
w: Great|things he has|taught us, great|things he has|done, and|great our re-|
"^G" B2 G2 B2 |"^A7" B2 A2 E2 |"^D" A4 D2 |"^G" D4"^D7" EF |"^G" G2 D2 G2 |"^D" A2 D2 A2 | %12
w: world that he|gave us his|Son, who|yield- ed his|life an a-|tone- ment for|
w: liev- er the|prom- ise of|God; the|vil- est of-|fend- er who|tru- ly be-|
w: joic- ing through|Je- sus the|Son; but|pur- er and|high- er and|great- er will|
"^G" B4 B2 |"^C" d2 c2 A2 |"^G/D" G2 F2 G2 | B2 B2"^D7" A2 |"^G" G4 ||1"^Refrain""^G" B>c | %18
w: sin, and|o- pened the|life- gate that|we may go|in.|Praise the|
w: lieves, that|mo- ment from|Je- sus a|par- don re-|ceives.||
w: be our|won- der, our|glad- ness, when|Je- sus we|see.||
 d4 B>c | d4 d>B | G2"^D" A2"^G" B2 |"^D" A4 A>B ||"^Page 2""^D7" c4 A>B | c4 cA | %24
w: Lord, praise the|Lord; let the|earth hear his|voice! Praise the|Lord, praise the|Lord; let the|
w: ||||||
w: ||||||
"^G" d2 d2"^D7" c2 |"^G" B4 D2 |"^To God Be the Glory" D4 EF |"^G" G2 D2 G2 |"^D" A2 D2 A2 | %29
w: peo- ple re-|joice! O|come to the|Fa- ther through|Je- sus the|
w: |||||
w: |||||
"^G" B4 B2 |"^C" d2 c2 A2 |"^G/D" G2 F2 G2 | B2 B2"^D7" A2 |"^G" G4 x2 |] %34
w: Son, and|give him the|glo- ry; great|things he has|done.|
w: |||||
w: |||||
V:2
 B,2 | (B,2 D2) CD | B,2 B,2 D2 | D2 D2 D2 | D4 D2 | E2 C2 E2 | D2 D2 D2 | ^C2 C2 E2 | D4 C2 | %9
 (B,2 D2) CC | B,2 B,2 D2 | D2 D2 D2 | D4 =F2 | E2 E2 E2 | D2 D2 D2 | D2 D2 C2 | B,4 ||1 D>D | %18
 G4 D>D | G4 D>D | D2 D2 D2 | D4 D>D || D4 D>D | D4 DD | D2 D2 D2 | D4 B,2 | (B,2 D2) CC | %27
 B,2 B,2 D2 | D2 D2 D2 | D4 =F2 | E2 E2 E2 | D2 D2 D2 | D2 D2 C2 | B,4 x2 |] %34
V:3
 G,2 | G,4 F,D, | D,2 G,2 G,2 | F,2 F,2 F,2 | G,4 G,2 | G,2 G,2 G,2 | G,2 G,2 G,2 | E,2 E,2 A,G, | %8
 F,4 F,2 | G,4 F,D, | D,2 G,2 G,2 | F,2 F,2 F,2 | G,4 G,2 | G,2 A,2 C2 | B,2 A,2 B,2 | %15
 G,2 G,2 F,2 | G,4 ||1 G,>A, | B,4 G,>A, | B,4 B,>G, | G,2 F,2 G,2 | F,4 F,>G, || A,4 F,>G, | %23
 A,4 A,F, | G,2 G,2 F,2 | G,4 G,2 | G,4 F,D, | D,2 G,2 G,2 | F,2 F,2 F,2 | G,4 G,2 | G,2 A,2 C2 | %31
 B,2 A,2 B,2 | G,2 G,2 F,2 | G,4 x2 |] %34
V:4
 G,,2 | (G,,2 B,,2) D,D, | G,,2 G,,2 B,,2 | D,2 D,2 D,2 | G,4 G,2 | C,2 C,2 C,2 | G,,2 B,,2 G,,2 | %7
 A,,2 A,,2 ^C,2 | D,4 D,2 | (G,,2 B,,2) D,D, | G,,2 G,,2 B,,2 | D,2 D,2 D,2 | G,4 G,2 | %13
 C,2 C,2 C,2 | D,2 D,2 D,2 | D,2 D,2 D,2 | G,,4 ||1 G,>G, | G,4 G,>G, | G,4 G,>G,, | %20
 B,,2 A,,2 G,,2 | D,4 D,>D, || D,4 D,>D, | D,4 D,C, | B,,2 B,,2 A,,2 | G,,4 G,,2 | %26
 (G,,2 B,,2) D,D, | G,,2 G,,2 B,,2 | D,2 D,2 D,2 | G,4 G,2 | C,2 C,2 C,2 | D,2 D,2 D,2 | %32
 D,2 D,2 D,2 | G,,4 x2 |] %34

